lib/preview_tmp/nrk-logo-nrk-sport.svg

<svg width="81" height="24" viewBox="0 0 81 24" fill="none" xmlns="http://www.w3.org/2000/svg">
<path d="M0 18.0028V6.00393H3.93719V18.0028H0ZM9.29381 7.91362L11.5581 18.0028H7.24917L4.54549 6.00393H6.96218C7.51635 5.99674 8.05406 6.19209 8.4745 6.55323C8.89562 6.89922 9.18495 7.37954 9.29381 7.91362ZM12.1495 18.0028V6.00393H16.0867V18.0028H12.1495ZM19.0605 10.5669C18.6362 10.5711 18.2188 10.4601 17.8525 10.2458C17.4912 10.037 17.1911 9.7368 16.9823 9.37544C16.7678 9.00917 16.6568 8.5916 16.661 8.16716C16.6561 7.7453 16.7672 7.33022 16.9823 6.96727C17.1933 6.60983 17.4931 6.31293 17.8525 6.10536C18.2189 5.89134 18.6362 5.78035 19.0605 5.78422C19.4822 5.77968 19.8971 5.89077 20.2602 6.10536C20.616 6.31475 20.9127 6.6114 21.122 6.96727C21.3368 7.33032 21.4479 7.74533 21.4433 8.16716C21.4473 8.59157 21.3363 9.00907 21.122 9.37544C20.9149 9.73521 20.6179 10.0351 20.2602 10.2458C19.8971 10.4608 19.4819 10.5719 19.0599 10.5669H19.0605ZM22.0516 18.0028V6.00393H25.9892V18.0028H22.0516ZM30.9737 12.5611C30.9848 12.5727 31.0693 12.7107 31.2272 12.9751C31.3851 13.2395 31.5907 13.5775 31.8439 13.9891C32.0974 14.4005 32.3649 14.8371 32.6463 15.2988C32.9278 15.7606 33.1926 16.1972 33.4408 16.6086C33.6881 17.02 33.9697 17.4848 34.2857 18.0028H29.9598C29.6893 17.5634 29.4441 17.1663 29.2245 16.8114C29.0048 16.4565 28.7713 16.0734 28.5238 15.6622C28.2758 15.2513 28.0306 14.8514 27.7882 14.4623C27.5458 14.0732 27.3375 13.7325 27.1633 13.4399C26.9883 13.1472 26.8671 12.95 26.7997 12.8484C26.6325 12.5963 26.5336 12.3051 26.5127 12.0034C26.5294 11.7138 26.6226 11.4338 26.7828 11.1919C26.8504 11.0793 26.9743 10.8793 27.1545 10.592C27.3348 10.3047 27.546 9.96389 27.7882 9.56956C28.0304 9.17523 28.2756 8.77244 28.5238 8.36121C28.772 7.94998 29.0056 7.56407 29.2245 7.20354C29.4445 6.84339 29.6897 6.44342 29.9598 6.00365H34.2857L30.9396 11.4623C30.8361 11.6244 30.7777 11.8112 30.7706 12.0034C30.7818 12.2052 30.8522 12.3992 30.9731 12.5611H30.9737Z" fill="white"/>
<path d="M45.3658 12.3873C45.1197 12.1365 44.834 11.9279 44.5201 11.7699C44.1912 11.6034 43.849 11.4648 43.4969 11.3556C43.1361 11.2428 42.764 11.1469 42.3806 11.0678C42.0871 11.0003 41.8136 10.9327 41.5603 10.8651C41.3275 10.8049 41.101 10.7227 40.8838 10.6196C40.6971 10.5312 40.5236 10.4173 40.3681 10.2813C40.2218 10.1523 40.1086 9.98992 40.0381 9.80797C39.9603 9.59395 39.9231 9.36729 39.9284 9.13961C39.9247 8.90386 39.9618 8.66926 40.0381 8.44617C40.1075 8.24941 40.2236 8.07238 40.3763 7.93028C40.5347 7.78533 40.7144 7.66566 40.9092 7.5754C41.132 7.47383 41.3684 7.40542 41.6111 7.37242C41.8996 7.33129 42.1907 7.31152 42.4821 7.31323C42.7476 7.31375 43.0129 7.32778 43.277 7.35524C43.5441 7.38313 43.8095 7.42555 44.072 7.48236C44.3269 7.53765 44.5782 7.60825 44.8246 7.69378C45.0553 7.77312 45.2788 7.87207 45.4927 7.9895L45.7295 6.50138C45.489 6.3759 45.2369 6.27396 44.9768 6.19694C44.7119 6.1182 44.444 6.05043 44.1734 5.99368C43.8996 5.93708 43.6229 5.89484 43.3447 5.86712C43.0628 5.83893 42.7752 5.82483 42.4821 5.82483C41.884 5.81833 41.2874 5.88641 40.7061 6.02751C40.2112 6.14705 39.7434 6.35953 39.3277 6.65361C38.9447 6.92837 38.6366 7.29456 38.4313 7.71886C38.2124 8.19579 38.1053 8.71647 38.1184 9.24109C38.1087 9.64709 38.1746 10.0514 38.3129 10.4332C38.4342 10.7534 38.6215 11.0445 38.8626 11.2876C39.101 11.5256 39.3747 11.7253 39.6742 11.8796C39.9918 12.0432 40.3229 12.1791 40.6639 12.2858C41.0191 12.3986 41.3827 12.4944 41.7548 12.5734C42.0593 12.6408 42.3412 12.7113 42.6005 12.7848C42.8418 12.8513 43.0767 12.939 43.3024 13.0469C43.4965 13.1385 43.676 13.2582 43.8352 13.4021C43.9862 13.544 44.1046 13.7172 44.1819 13.9095C44.2715 14.1413 44.3146 14.3884 44.3087 14.6368C44.3132 14.9009 44.2732 15.164 44.1904 15.4148C44.1161 15.6318 44.0014 15.8327 43.8521 16.0068C43.702 16.1784 43.5176 16.3166 43.3108 16.4125C43.0771 16.5201 42.8293 16.5942 42.5748 16.6326C42.2644 16.6802 41.9505 16.7029 41.6364 16.7003C41.331 16.6995 41.026 16.6797 40.7231 16.6411C40.4073 16.6016 40.0917 16.548 39.7759 16.4801C39.4648 16.4139 39.1571 16.332 38.8541 16.2349C38.5553 16.1396 38.2706 16.041 38 15.9391L38.2199 17.6136C38.5082 17.7212 38.8017 17.8143 39.0994 17.8924C39.3696 17.9633 39.6435 18.0198 39.9197 18.0615C40.1843 18.1008 40.4492 18.1318 40.7146 18.1545C40.9799 18.1773 41.2477 18.1886 41.5177 18.1884C42.1233 18.1922 42.7273 18.1298 43.3193 18.0023C43.8433 17.8924 44.3423 17.686 44.7908 17.3934C45.2092 17.1165 45.5475 16.7345 45.7718 16.2856C46.0189 15.754 46.1377 15.1717 46.1185 14.5858C46.1277 14.1492 46.0619 13.7144 45.924 13.3001C45.806 12.9591 45.6156 12.6477 45.3658 12.3873Z" fill="white"/>
<path d="M54.6683 9.72341C54.0613 9.35175 53.3585 9.1665 52.6472 9.19063C52.225 9.19272 51.8047 9.24658 51.3956 9.35102C50.9535 9.46359 50.5273 9.63131 50.1271 9.85025C50.0476 9.8931 49.9686 9.94131 49.8903 9.98951V9.20753L48.1651 9.47817V21.5542H49.8903V17.7675C49.9018 17.7723 49.9126 17.7776 49.9241 17.7827C50.2366 17.9124 50.5629 18.0061 50.8966 18.0618C51.2906 18.1268 51.6895 18.1579 52.0888 18.1548C52.8503 18.168 53.6012 17.975 54.2621 17.5964C54.9112 17.2118 55.4387 16.6521 55.7843 15.9814C56.1838 15.1818 56.3785 14.2955 56.3509 13.4021C56.3669 12.6467 56.2197 11.8967 55.9194 11.2033C55.655 10.599 55.2203 10.0847 54.6683 9.72341ZM54.2202 15.381C54.017 15.8301 53.6764 16.2031 53.2476 16.4463C52.7709 16.696 52.2378 16.8185 51.7 16.8017C51.4423 16.8019 51.185 16.782 50.9304 16.7422C50.6633 16.6997 50.4002 16.6347 50.1439 16.548C50.0627 16.5198 49.9748 16.4877 49.8903 16.4567V11.119C49.9125 11.1086 49.9356 11.0951 49.9579 11.0849C50.2058 10.9722 50.4369 10.8762 50.6513 10.7971C50.8542 10.7213 51.0637 10.6647 51.2771 10.628C51.4671 10.5953 51.6595 10.5783 51.8522 10.5772C52.3736 10.5599 52.891 10.6733 53.3573 10.9071C53.7651 11.1291 54.0845 11.4841 54.2621 11.9131C54.4772 12.4621 54.5779 13.0491 54.5581 13.6383C54.5761 14.2371 54.4606 14.8323 54.2202 15.381Z" fill="white"/>
<path d="M64.5966 9.7318C63.8919 9.3573 63.1026 9.1709 62.3048 9.19058C61.4996 9.17212 60.7037 9.36453 59.9958 9.74873C59.3424 10.1144 58.808 10.6604 58.4566 11.3217C58.0749 12.0634 57.8859 12.8892 57.907 13.7231C57.8854 14.5506 58.0623 15.3713 58.4229 16.1164C58.7469 16.7668 59.2637 17.3015 59.9028 17.6474C60.5908 18.0077 61.3589 18.188 62.1354 18.1714C62.9482 18.1875 63.7517 17.9955 64.4694 17.6135C65.1396 17.248 65.6892 16.6955 66.0512 16.0234C66.4438 15.2729 66.6388 14.4348 66.6178 13.5881C66.6369 12.7815 66.4567 11.9827 66.0931 11.2625C65.7562 10.6158 65.2355 10.0832 64.5966 9.7318ZM64.4948 15.3979C64.3048 15.8373 63.9827 16.2067 63.5733 16.455C63.1618 16.6905 62.6943 16.8103 62.2202 16.8017C61.7553 16.8133 61.2969 16.6898 60.9007 16.4462C60.5087 16.1858 60.2026 15.8151 60.0212 15.3809C59.791 14.8239 59.6815 14.2244 59.6998 13.6219C59.6798 13.0357 59.7896 12.4523 60.0212 11.9134C60.2109 11.4898 60.5271 11.1353 60.9263 10.8986C61.3529 10.6636 61.8346 10.5468 62.3215 10.5603C62.7016 10.5508 63.0793 10.6229 63.4293 10.7717C63.7358 10.9101 64.0032 11.1223 64.2076 11.3893C64.4255 11.6794 64.5835 12.0101 64.6724 12.3619C64.7781 12.7734 64.8293 13.1971 64.8246 13.6219C64.8443 14.2308 64.732 14.8367 64.4948 15.3979Z" fill="white"/>
<path d="M72.2495 9.31717C71.9332 9.40219 71.6311 9.53327 71.353 9.70618C71.0646 9.88642 70.7979 10.0992 70.5581 10.3404C70.5181 10.3805 70.4794 10.425 70.4397 10.467V9.2075L68.7145 9.46121V18.0026H70.4397V11.6126C70.5678 11.523 70.7005 11.44 70.8372 11.364C71.0064 11.2706 71.1816 11.1887 71.3617 11.1187C71.5363 11.0511 71.7139 10.9919 71.8943 10.9412C72.0799 10.8894 72.2694 10.8526 72.4609 10.8309C72.6659 10.8084 72.8723 10.8028 73.0782 10.8143L73.2812 9.22416C72.9345 9.1995 72.5861 9.2309 72.2495 9.31717Z" fill="white"/>
<path d="M79.5899 16.5903C79.5107 16.6072 79.4233 16.6239 79.3275 16.641L79.0402 16.6915C78.9479 16.7082 78.8548 16.7196 78.7612 16.7256C78.6706 16.7313 78.586 16.7341 78.5075 16.7341C78.2483 16.741 77.9909 16.6889 77.7548 16.5819C77.5519 16.4855 77.3836 16.329 77.2728 16.1337C77.1543 15.9129 77.096 15.6649 77.1037 15.4145V10.7298H79.4885L79.6745 9.37666H77.1037V6.7046L75.3784 7.3135V9.37666H74.0761L73.8898 10.7298H75.3784V15.77C75.3708 16.1062 75.4223 16.4411 75.5307 16.7595C75.6177 17.0112 75.7527 17.2437 75.9281 17.4442C76.0889 17.6229 76.2846 17.7668 76.5032 17.867C76.7268 17.9699 76.9625 18.0439 77.2048 18.0872C77.4448 18.1314 77.6882 18.154 77.9321 18.1548C78.1126 18.1548 78.2902 18.1491 78.4652 18.1376C78.6401 18.1262 78.8009 18.1093 78.9473 18.0872C79.0936 18.0643 79.232 18.039 79.3616 18.0108C79.4913 17.9826 79.6009 17.9578 79.6912 17.935L79.7929 16.5308C79.7271 16.5563 79.6591 16.5762 79.5899 16.5903Z" fill="white"/>
</svg>

<svg xmlns="http://www.w3.org/2000/svg" viewBox="0 0 81 24" fill="currentColor"><path d="M0 18.003v-12h3.937v12H0Zm9.294-10.09 2.264 10.09H7.25l-2.704-12h2.417a2.276 2.276 0 0 1 1.513.55c.42.346.71.827.819 1.36Zm2.855 10.09v-12h3.938v12h-3.938Zm6.912-7.436a2.381 2.381 0 0 1-2.078-1.191 2.345 2.345 0 0 1-.322-1.209 2.301 2.301 0 0 1 .321-1.2 2.41 2.41 0 0 1 3.278-.862c.356.21.653.506.862.862.215.363.326.778.321 1.2a2.35 2.35 0 0 1-.321 1.208 2.4 2.4 0 0 1-.862.87 2.302 2.302 0 0 1-1.2.322Zm2.99 7.436v-12h3.938v12h-3.937Zm8.923-5.442c.01.012.095.15.253.414s.364.603.617 1.014a315.936 315.936 0 0 1 1.597 2.62c.247.411.529.876.845 1.394H29.96c-.27-.44-.516-.837-.736-1.192-.22-.355-.453-.738-.7-1.149-.248-.41-.493-.81-.736-1.2-.242-.389-.45-.73-.625-1.022a18.04 18.04 0 0 0-.363-.592 1.747 1.747 0 0 1-.287-.845c.016-.29.11-.57.27-.811.067-.113.191-.313.371-.6s.392-.628.634-1.022c.242-.395.488-.798.736-1.209l.7-1.157.736-1.2h4.326l-3.346 5.458a1.08 1.08 0 0 0-.17.541c.012.202.082.396.203.558ZM45.366 12.387a3.201 3.201 0 0 0-.846-.617 6.582 6.582 0 0 0-1.023-.414 11.58 11.58 0 0 0-1.116-.288 24.406 24.406 0 0 1-.82-.203 3.79 3.79 0 0 1-.677-.245 2.239 2.239 0 0 1-.516-.339 1.218 1.218 0 0 1-.33-.473 1.832 1.832 0 0 1-.11-.668c-.003-.236.034-.47.11-.694.07-.197.186-.374.338-.516.159-.145.338-.264.533-.355.223-.101.46-.17.702-.203.289-.04.58-.06.871-.059a7.384 7.384 0 0 1 1.59.17c.255.055.506.125.753.21.23.08.454.18.668.296l.236-1.488a4.214 4.214 0 0 0-.752-.304 10.082 10.082 0 0 0-.804-.203 8.024 8.024 0 0 0-.828-.127 8.666 8.666 0 0 0-.863-.042 7.198 7.198 0 0 0-1.776.203c-.495.12-.963.332-1.378.626a2.825 2.825 0 0 0-.897 1.065 3.443 3.443 0 0 0-.313 1.522c-.01.406.057.81.195 1.192.121.32.308.611.55.855.238.238.512.437.811.592.318.163.649.3.99.406.355.113.719.208 1.09.287.305.068.587.138.846.212.242.066.477.154.702.262.194.091.374.211.533.355.151.142.27.315.347.508.09.231.133.478.127.727.004.264-.036.527-.119.778a1.81 1.81 0 0 1-.338.592 1.63 1.63 0 0 1-.541.405 2.736 2.736 0 0 1-.736.22c-.31.048-.625.07-.939.068-.305 0-.61-.02-.913-.059-.316-.04-.631-.093-.947-.16a9.5 9.5 0 0 1-.922-.246 17.605 17.605 0 0 1-.854-.296l.22 1.675c.288.107.582.2.88.278.27.071.544.128.82.17.264.039.53.07.795.092.265.023.533.035.803.034a8.308 8.308 0 0 0 1.801-.186 4.313 4.313 0 0 0 1.472-.609c.418-.277.757-.659.98-1.107a3.742 3.742 0 0 0 .347-1.7 3.816 3.816 0 0 0-.194-1.286 2.499 2.499 0 0 0-.558-.913ZM54.668 9.723a3.635 3.635 0 0 0-2.02-.532 5.163 5.163 0 0 0-1.252.16 5.44 5.44 0 0 0-1.506.639v-.782l-1.725.27v12.076h1.725v-3.787l.034.016c.313.13.639.223.973.279.394.065.793.096 1.192.093a4.225 4.225 0 0 0 2.173-.559 4.014 4.014 0 0 0 1.522-1.615c.4-.8.595-1.685.567-2.579a5.253 5.253 0 0 0-.432-2.199 3.395 3.395 0 0 0-1.25-1.48Zm-.448 5.658c-.203.45-.544.822-.972 1.065-.477.25-1.01.372-1.548.356a4.817 4.817 0 0 1-1.81-.345v-5.338c.023-.01.046-.024.068-.034.248-.113.479-.209.693-.288a3.467 3.467 0 0 1 1.201-.22 3.127 3.127 0 0 1 1.505.33c.408.222.727.577.905 1.006a4.33 4.33 0 0 1 .296 1.725 4.04 4.04 0 0 1-.338 1.743ZM64.597 9.732a4.64 4.64 0 0 0-2.292-.541 4.618 4.618 0 0 0-2.31.558 3.9 3.9 0 0 0-1.538 1.573 4.973 4.973 0 0 0-.55 2.401 5.184 5.184 0 0 0 .516 2.393c.324.65.84 1.186 1.48 1.531a4.6 4.6 0 0 0 2.232.524 4.767 4.767 0 0 0 2.334-.558 3.939 3.939 0 0 0 1.582-1.59c.393-.75.588-1.588.567-2.435a4.903 4.903 0 0 0-.525-2.325 3.696 3.696 0 0 0-1.496-1.531Zm-.102 5.666c-.19.44-.512.809-.922 1.057a2.628 2.628 0 0 1-1.353.347 2.405 2.405 0 0 1-1.32-.356 2.38 2.38 0 0 1-.879-1.065 4.266 4.266 0 0 1-.321-1.76c-.02-.585.09-1.169.321-1.708.19-.423.506-.778.905-1.014a2.735 2.735 0 0 1 1.395-.339c.38-.01.758.063 1.108.212.307.138.574.35.779.617.218.29.376.621.464.973.106.411.157.835.153 1.26a4.212 4.212 0 0 1-.33 1.776ZM72.25 9.317a3.34 3.34 0 0 0-.897.39c-.288.18-.555.392-.795.633-.04.04-.079.085-.118.127v-1.26l-1.725.254v8.542h1.725v-6.39a4.334 4.334 0 0 1 .922-.494c.174-.068.352-.127.532-.178a3.627 3.627 0 0 1 1.184-.127l.203-1.59a3.232 3.232 0 0 0-1.032.093ZM79.59 16.59c-.08.017-.167.034-.263.051l-.287.05a2.445 2.445 0 0 1-.279.035c-.09.005-.175.008-.254.008a1.713 1.713 0 0 1-.752-.152 1.094 1.094 0 0 1-.482-.448 1.428 1.428 0 0 1-.17-.72V10.73h2.386l.185-1.353h-2.57V6.705l-1.726.609v2.063h-1.302l-.186 1.353h1.488v5.04c-.007.336.044.671.153.99.087.251.222.484.397.684.16.179.357.323.575.423.224.103.46.177.702.22.24.044.483.067.727.068.18 0 .358-.006.533-.017a5.749 5.749 0 0 0 .897-.127c.13-.028.239-.053.33-.076l.1-1.404a1.256 1.256 0 0 1-.202.06Z"/></svg>
